X:733
T:Down By the Sally Garden
S:Barbara Pomerenke-Steel
Z:Nigel Gatherer
L:1/8
M:4/4
K:D
DE | F2 ED E2 FA | B4 A2 dA | B2 AF E3 D | D6 :|
A2 | d2 cA B2 d2 | c4 A2 FA | B2 AF ABde | d6
DE | F2 ED E2 FA | B4 A2 dA | B2 AF E3 D | D6 ||
<end>
<start>
